X:1
T:Alleluia - Boyce
T:James Gibb editions
T:#
%%score [ 1 2 3 4 ]
L:1/8
Q:1/4=80
M:2/2
K:C
V:1 treble nm="Soprano" snm="S"
V:2 treble nm="Alto" snm="A"
V:3 treble-8 nm="Tenor" snm="T"
V:4 bass nm="Bass" snm="B"
V:1
!f!"^Alleluia" c3 c B2 B2 | d3 d c2 c2 | f4 (e2 c2) | d4 d4 |!p! c3 c B2!<(! B2 | %5
w: Al- le- lu- ia,|al- * le\-lu- ia,|al- le\- *|lu- ia.|Al- * le\-lu- ia,|
 A3 A c2"^William Boyce \n(1710- 1779)" c2!<)! | %6
w: al- le- lu- ia,|
[M:2/2][Q:1/4=90]!mf![Q:1/4=90][Q:1/4=90][Q:1/4=90] AAAA!>(! GGGG!>)! |!p! AAAA!<(! GGGG!<)! | %8
w: al- le- lu- ia. al- le- lu- ia,|al- le- lu ia~, al- le- lu- ia~,|
!mf! A2 G2 F4 | E8 ||!f! !>!c8 | !>!B8 | !>!A8 | !>!G8 | !>!A6 !>!B2 | (!>!cBAG !>!AGFE | F4 G4) | %17
w: al- le- lu-|ia.|Al-|le-|lu-|ia,|al- le-|lu\- * * * * * * *||
 !>!c8 |!f! z2!mf! C2 E2 C2 | G2 D2 G2 (AB) | (cB) (AB) c2 d2 | B4 G4- | G2 G2 F4 | E4 c4- | %24
w: ia.|Al- le- lu-|ia, al- le- lu\- *|ia, * al\- * le- lu-|ia, al\-|* le- lu-|ia, al\-|
 c2 A2 B4 | c8 | c6 e2 | (dcBA) G4 | G2 A2 ^F4 | G6 E2 | C4 D4 | C6 c2 | d4 d4 | c8 |!f! !>!c8 | %35
w: * le- lu-|ia.|Al- le-|lu\- * * * ia,|al- le- lu-|ia, al-|le- lu-|ia, al-|le- lu-|ia.|Al-|
 !>!B8 | A8 | !>!G8 | !>!A6 !>!B2 | (!>!cBAG !>!AGFE | F4 G4) | !>!c8 | z2!mf! C2 E2 C2 | %43
w: le-|lu-|ia,|al- le-|lu- * * * * * * *||ia.|Al- le- lu-|
 G2 D2 G2 (AB) | (cB) (AB) c2 d2 | B4 G4- | G2 G2 F4 | E4 c4- | c2 A2 B4 | c8 | c6 e2 | (dcBA) G4 | %52
w: ia, al- le- lu\- *|ia, * al\- * le- lu-|ia, al\-|* le- lu-|ia, al\-|* le- lu-|ia.|Al- le-|lu\- * * * ia,|
 G2 A2 ^F4 | G6 E2 | C4 D4 |!<(! C6 c2 | d4 d4!<)! |!ff! c8 |!mp!!<(! d3 d d2 d2!<)! | %59
w: al- le- lu-|ia, al-|le- lu-|ia, al-|le- lu-|ia.|Al- * le\-lu- ia,|
!ff!!>(! !>!e3 e e2 e2!>)! |!pp! AAAA GGGG |!mf! AAAA GGGG | %62
w: al- le- lu- ia,|al- le- lu- ia, al- le- lu- ia,|al- le- lu- ia, al- le- lu- ia,|
"^rall."[Q:1/4=88] A2[Q:1/4=85] G2[Q:1/4=81] F4 |[Q:1/4=78] E8 | %64
w: al- le- lu-|ia.|
!ff!"^allarg."[Q:1/4=77] c2[Q:1/4=74] c2[Q:1/4=70] d4 |[Q:1/4=67] e8 |] %66
w: Al- le- lu-|ia!|
V:2
!f! E3 E D2 D2 | F3 F E2 E2 | A4 G4 | A4 G4 |!p! E3 D D2!<(! D2 | F3 F E2 E2!<)! | %6
w: Al- le- lu- ia,|al- le- lu- ia,|al- le-|lu- ia.|Al- le- lu- ia,|al- le- lu- ia,|
[M:2/2]!mf! CCCC!>(! CCCC!>)! |!p! CCCC!<(! CCC.C!<)! |!mf! C2 E2 D4 | C8 || z8 | z8 | z8 | z8 | %14
w: al- le- lu- ia, al- le- lu- ia,|al- le- lu- ia, al- le- lu- ia,|al- le- lu-|ia.|||||
 z8 | z8 | z8 | z8 | !>!c8 | !>!B8 | !>!A8 | !>!G8 | !>!A6 !>!B2 | (!>!cBAG !>!AGFE | F4 G4) | %25
w: ||||Al-|le-|lu-|ia,|al- le-|lu\- * * * * * * *||
 !>!c8 |!f! z2 C2!mf! E2 C2 | G2 D2 G2 (AB) | (cB) (AB) c2 d2 | B4 G4- | G2 G2 F4 | E4 c4- | %32
w: ia.|Al- le- lu-|ia, al- le- lu\- *|ia, * al\- * le- lu-|ia, al\-|* le- lu-|ia, al\-|
 c2 A2 B4 | c8 |!mf! c6 e2 | (dcBA) G4 | G2 A2 ^F4 | G6 E2 | C4 D4 | C6 c2 | d4 d4 | c8 | z8 | z8 | %44
w: * le- lu-|ia.|Al- le-|lu\- * * * ia,|al- le- lu-|ia, al-|le- lu-|ia, al-|le- lu-|ia.|||
 z8 | z8 | z8 | z8 | z8 | z8 | !>!c8 | !>!B8 | !>!A8 | !>!G8 | !>!A6 !>!B2 | %55
w: ||||||Al-|le-|lu-|ia,|al- le-|
!<(! (!>!cBAG (!>!AG)FE | F4 G4)!<)! |!ff! !>!c8 |!mp!!<(! B3 B B2 B2!<)! | %59
w: lu\- * * * * * * *||ia.|Al- le- lu- ia,|
!ff!!>(! !>!c3 c c2 c2!>)! |!pp! CCCC CCCC |!mf! CCCC CCCC |"^rall." C2 E2 D4 | C8 | %64
w: al- le- lu- ia,|al- le- lu- ia, al- le- lu- ia,|al- le- lu- ia, al- le- lu- ia,|al- le- lu-|ia.|
"^allarg."!ff! E2 A2 B4 | G8 |] %66
w: Al- le- lu-|ia!|
V:3
!f! c3 c G2 G2 | A3 d A2 A2 | c4 c4 | A4 B4 |!p! c3 c G2!<(! G2 | A3 d A2 A2!<)! | %6
w: Al- le- lu- ia,|al- le- lu- ia,|al- le-|lu- ia.|Al- le- lu- ia,|al- le- lu- ia,|
[M:2/2][K:treble-8]!mf! AAAA!>(! cccc!>)! |!p! AAAA!<(! cccc!<)! |!mf! A2 G2 G4 | G8 || z8 | z8 | %12
w: al- le- lu- ia, al- le- lu- ia,|al- le- lu- ia, al- le- lu- ia,|al- le- lu-|ia.|||
 z8 | z8 | z8 |[M:2/2] z8 | z8 | z8 | z8 | z8 | z8 | z8 | z8 |[M:2/2][K:treble-8] z8 | z8 | z8 | %26
w: ||||||||||||||
 !>!c8 | !>!B8 | !>!A8 | !>!G8 | !>!A6 !>!B2 | (!>!cBAG AGFE | F4 G4) | !>!c8 | z2 C2!mf! E2 C2 | %35
w: Al-|le-|lu-|ia,|al- le-|lu\- * * * * * * *||ia.|Al- le- lu-|
 G2 D2 G2 (AB) | (cB) (AB) c2 d2 | B4 G4- | G2 G2 F4 | E4 c4- | c2 A2 B4 | c8 |!mf! c6 e2 | %43
w: ia, al- le- lu\- *|ia, * al\- * le- lu-|ia, al\-|* le- lu-|ia, al\-|* le- lu-|ia.|Al- le-|
 (dcBA) G4 | G2 A2 ^F4 | G6 E2 | C4 D4 | C6 c2 | d4 d4 | c8 | !>!c8 | !>!B8 | A8 | !>!G8 | %54
w: lu\- * * * ia,|al- le- lu-|ia, al-|le- lu-|ia, al-|le- lu-|ia.|Al-|le-|lu-|ia,|
 !>!A6 !>!B2 |!<(! (!>!cBAG !>!AGFE | F4 G4)!<)! |!ff! !>!c8 |!mp!!<(! d3 d d2 d2!<)! | %59
w: al- le-|lu\- * * * * * * *||ia.|Al- le- lu- ia,|
!ff!!>(! !>!c3 c c2 c2!>)! |!pp! AAAA cccc |!mf! AAAA cccc |"^rall." A2 G2 G4 | G8 | %64
w: al- le- lu- ia,|al- le- lu- ia, al- le- lu \-ia,|al- le- lu- ia, al- le- lu- ia,|al- le- lu-|ia.|
"^allarg."!ff! A2 e2 g4 | c8 |] %66
w: Al- le- lu-|ia!|
V:4
!f! C,3 C, G,2 G,2 | D,3 D, A,2 A,2 | F,4 (C,2 E,2) | F,4 G,4 |!p! C,3 C, G,2!<(! G,2 | %5
w: Al- le- lu- ia,|al- * le\-lu- ia,|al- le\- *|lu- ia.|Al- le- lu- ia,|
 D,3 D, A,2 A,2!<)! |[M:2/2]!mf! F,F,F,F,!>(! E,E,E,E,!>)! |!p! F,F,F,F,!<(! E,E,E,E,!<)! | %8
w: al- * le\-lu- ia,|al- le- lu- ia, al- le- lu- ia,|al- le- lu- ia, al- le- lu- ia,|
!mf! F,2 G,2 G,,4 | C,8 || z8 | z8 | z8 | z8 | z8 |[M:2/2] z8 | z8 | z8 | z8 | z8 | z8 | z8 | z8 | %23
w: al- le- lu-|ia.||||||||||||||
[M:2/2] z8 | z8 | z8 | z8 | z8 | z8 | z8 | z8 |[M:2/2] z8 | z8 | z8 | z8 | z8 | z8 | z8 | z8 | %39
w: ||||||||||||||||
[M:2/2] z8 | z8 | z8 |!f! !>!C8 | !>!B,8 | !>!A,8 | !>!G,8 | !>!A,6 !>!B,2 | %47
w: |||Al-|le-|lu-|ia,|al- le-|
 (!>!CB,A,G, !>!A,G,F,E, | F,4 G,4) | !>!C8 | z2 C,2 E,2 C,2 | G,2 D,2 G,2 (A,B,) | %52
w: lu\- * * * * * * *||ia.|Al- le- lu-|ia, al- le- lu\- *|
 (CB,) (A,B,) C2 D2 | B,4 G,4- | G,2 G,2 F,4 | E,4!<(! C4- | C2 A,2 B,4!<)! |!ff! C8 | %58
w: ia, * al\- * le- lu-|ia, al\-|* le- lu-|ia, al-|* le- lu-|ia.|
!mp!!<(! G,3 G, G,2 G,2!<)! |!ff!!>(! !>!C3 C C2 C2!>)! |!pp! F,F,F,F, E,E,E,E, | %61
w: Al- le- lu- ia,|al- le- lu- ia,|al- le- lu- ia, al- le- lu- ia,|
!mf! F,F,F,F, E,E,E,E, |"^rall." F,2 G,2 G,,4 | C,8 |"^allarg."!ff! A,2 A,2 G,4 | C,8 |] %66
w: al- le- lu- ia, al- le- lu- ia,|al- le- lu-|ia.|Al- le- lu-|ia!|

